!!!SOCIAL_FUNCTION:	hand game songs
!!!PDT:	1922
!!!OTL: No_102_Hand_Game_Song_(i).krn
!!!REG: Southwest
!!!LANG: Non-Tone
!!!LING_GROUP: Uto-Aztecan
**kern	**kern
*staff2	*staff1
=1-	=1-
=	=
*clefF4	*clefF4
*k[f#]	*k[f#]
*M3/4	*M3/4
8GG/L	2d\
8GG/J	.
8GG/L	.
8GG/J	.
8GG/L	8e\L
8GG/J	8d\J
=2||	=2||
*M2/4	*M2/4
2r	4A\
.	4G\
=3	=3
2r	8E\L
.	8D\J
.	4E\
=4||	=4||
*M3/4	*M3/4
2.r	4D\
.	2D\
=5	=5
2.r	4G\
.	16A\LK
.	8.G\J
.	16A\LK
.	8.G\J
=6||	=6||
*M2/4	*M2/4
2r	16E\LK
.	8.D\J
.	16E\LK
.	8.D\J
=7||	=7||
*M3/4	*M3/4
2.r	4D\
.	2D\
=8	=8
2.r	4G\
.	16E\LK
.	8.D\J
.	4E\
=9	=9
2.r	4D\
.	2D\
=10||	=10||
*M2/4	*M2/4
2r	2D\
=11	=11
2r	2D\
==:|!	==:|!
*-	*-
